X:12
T: Yitang qingshui yitang lian
N: C0134
O: Hunan, Hengshan
M: 2/2
L: 1/16
K: E
c2e2c12 | c3eb8-b2g2 |
c16 | b12g4 | f16 |
e2g2c2e2g8- | g6ecB4G4 | G2B2c12 |
c2e2c12 | c3eb8b2g2 |
g2b2c12 | b12g4 |
g4g4ecB2B2G2 | G2B2c12 |
e4e4b4g4 | c2e2g12 | f16 |
g4g4ecBce4 | g4efefefefe4 |
e4e4g4c2e2 | g16 | f16 |
g4g4(3e2c2B2(3c2B2G2 | B4c12

@@@ Tune index: 9704
